src/icons/SVG/16px/Navigation_Arrow_Down_16px.svg

<svg width="16" height="16" viewBox="0 0 16 16" fill="none" xmlns="http://www.w3.org/2000/svg">
  <g id="Square"> </g>
  <g id="Icon">
<path id="Vector" d="M9 3C9 2.44772 8.55228 2 8 2C7.44772 2 7 2.44772 7 3H9ZM8 13L7.29289 13.7071C7.68342 14.0976 8.31658 14.0976 8.70711 13.7071L8 13ZM11.7071 10.7071C12.0976 10.3166 12.0976 9.68342 11.7071 9.29289C11.3166 8.90237 10.6834 8.90237 10.2929 9.29289L11.7071 10.7071ZM5.70711 9.29289C5.31658 8.90237 4.68342 8.90237 4.29289 9.29289C3.90237 9.68342 3.90237 10.3166 4.29289 10.7071L5.70711 9.29289ZM7 3V13H9V3H7ZM8.70711 13.7071L11.7071 10.7071L10.2929 9.29289L7.29289 12.2929L8.70711 13.7071ZM8.70711 12.2929L5.70711 9.29289L4.29289 10.7071L7.29289 13.7071L8.70711 12.2929Z" fill="black"/>
</g>
</svg>

<svg xmlns="http://www.w3.org/2000/svg" viewBox="0 0 16 16">
  <g id="Square"> </g>
  <path d="M9 3a1 1 0 00-2 0h2zM8 13l-.707.707a1 1 0 001.414 0L8 13zm3.707-2.293a1 1 0 00-1.414-1.414l1.414 1.414zm-6-1.414a1 1 0 00-1.414 1.414l1.414-1.414zM7 3v10h2V3H7zm1.707 10.707l3-3-1.414-1.414-3 3 1.414 1.414zm0-1.414l-3-3-1.414 1.414 3 3 1.414-1.414z"/>
</svg>
